pages/travel-inside/img/svg/why-we4.svg

<svg width="35" height="35" viewBox="0 0 35 35" fill="none" xmlns="http://www.w3.org/2000/svg">
<circle cx="17.5" cy="17.5" r="17.5" fill="white"/>
<path d="M22.6071 10C21.1686 10.0024 19.9557 11.0729 19.7746 12.5H11.8928C11.6956 12.4998 11.5355 12.6596 11.5354 12.8568C11.5353 12.945 11.5679 13.0301 11.6268 13.0957L16.8928 18.9693V24.2857H14.75V25H19.75V24.2857H17.6071V18.9689L20.9839 15.2029C21.4596 15.536 22.0264 15.7146 22.6071 15.7143C24.1851 15.7143 25.4642 14.4351 25.4642 12.8572C25.4642 11.2792 24.1851 10 22.6071 10ZM17.25 18.2971L14.2785 14.9832H20.2207L17.25 18.2971ZM20.8214 14.3111V14.2689H13.6382L12.6928 13.2143H20.1071H21.8064L20.8214 14.3111ZM22.6071 15C22.2023 15.0006 21.8057 14.8853 21.4643 14.6678L22.8736 13.0964C23.0057 12.95 22.9942 12.7242 22.8477 12.592C22.7818 12.5325 22.696 12.4997 22.6071 12.5H20.4939C20.6911 11.3331 21.797 10.547 22.9639 10.7443C24.1308 10.9415 24.9169 12.0474 24.7197 13.2143C24.5454 14.2452 23.6527 14.9999 22.6071 15Z" fill="black"/>
</svg>

<svg xmlns="http://www.w3.org/2000/svg" width="35" height="35" fill="none"><circle cx="17.5" cy="17.5" r="17.5" fill="#fff"/><path fill="#000" d="M22.6 10a2.86 2.86 0 00-2.83 2.5H11.9a.36.36 0 00-.26.6l5.26 5.87v5.32h-2.14V25h5v-.71h-2.14v-5.32l3.37-3.77A2.86 2.86 0 1022.6 10zm-5.35 8.3l-2.97-3.32h5.94l-2.97 3.32zm3.57-3.99v-.04h-7.18l-.95-1.06h9.12l-.99 1.1zm1.79.69c-.4 0-.8-.11-1.15-.33l1.41-1.57a.36.36 0 00-.26-.6h-2.12a2.14 2.14 0 112.12 2.5z"/></svg>
